X: 1
T: The Wind That Shakes The Barley
M: 4/4
L: 1/8
K: Dmaj
B|A2AB AFED|B2BA BcdB|A2AB AFED|gfed Bcd:|
|:E|f2fd g2ge|f2fd Bcde|f2fd g2fg|afed Bcde:|
